material/.icons/material/database-lock.svg

<svg xmlns="http://www.w3.org/2000/svg" viewBox="0 0 24 24"><path d="M11 3c4.42 0 8 1.79 8 4s-3.58 4-8 4-8-1.79-8-4 3.58-4 8-4m8 9.03a4.502 4.502 0 00-3.87 3.4c-1.21.36-2.63.57-4.13.57-4.42 0-8-1.79-8-4V9c0 2.21 3.58 4 8 4s8-1.79 8-4v3.03m-5 5.68v3c-.93.19-1.94.29-3 .29-4.42 0-8-1.79-8-4v-3c0 2.21 3.58 4 8 4 1.06 0 2.07-.1 3-.29M19.5 14a2.5 2.5 0 012.5 2.5v.5a1 1 0 011 1v4a1 1 0 01-1 1h-5a1 1 0 01-1-1v-4a1 1 0 011-1v-.5a2.5 2.5 0 012.5-2.5m0 1a1.5 1.5 0 00-1.5 1.5v.5h3v-.5a1.5 1.5 0 00-1.5-1.5z"/></svg>

<?xml version="1.0" encoding="UTF-8"?><!DOCTYPE svg PUBLIC "-//W3C//DTD SVG 1.1//EN" "http://www.w3.org/Graphics/SVG/1.1/DTD/svg11.dtd"><svg xmlns="http://www.w3.org/2000/svg" xmlns:xlink="http://www.w3.org/1999/xlink" version="1.1" id="mdi-database-lock" width="24" height="24" viewBox="0 0 24 24"><path d="M11,3C15.42,3 19,4.79 19,7C19,9.21 15.42,11 11,11C6.58,11 3,9.21 3,7C3,4.79 6.58,3 11,3M19,12.03C17.11,12.24 15.57,13.62 15.13,15.43C13.92,15.79 12.5,16 11,16C6.58,16 3,14.21 3,12V9C3,11.21 6.58,13 11,13C15.42,13 19,11.21 19,9V12.03M14,17.71V20.71C13.07,20.9 12.06,21 11,21C6.58,21 3,19.21 3,17V14C3,16.21 6.58,18 11,18C12.06,18 13.07,17.9 14,17.71M19.5,14A2.5,2.5 0 0,1 22,16.5V17A1,1 0 0,1 23,18V22A1,1 0 0,1 22,23H17A1,1 0 0,1 16,22V18A1,1 0 0,1 17,17V16.5A2.5,2.5 0 0,1 19.5,14M19.5,15A1.5,1.5 0 0,0 18,16.5V17H21V16.5A1.5,1.5 0 0,0 19.5,15Z" /></svg>
